X:1
T:The Pioneers
M:4/4
L:1/4
K:C
 G| E G G G| A G G E| G G G F| E C2| G| c c c G| A c G E| G G G F|\
 E C2||
